src/lib/packages/icons/src/assets/filled/bookmark-times.svg

<svg width="24" height="24" viewBox="0 0 24 24" fill="none" xmlns="http://www.w3.org/2000/svg">
<path d="M16 3H8C6 3 5 4 5 6V21L12 17L19 21V6C19 4 18 3 16 3ZM14.53 11.47C14.823 11.763 14.823 12.238 14.53 12.531C14.384 12.677 14.192 12.751 14 12.751C13.808 12.751 13.616 12.678 13.47 12.531L12 11.061L10.53 12.531C10.384 12.677 10.192 12.751 10 12.751C9.808 12.751 9.61597 12.678 9.46997 12.531C9.17697 12.238 9.17697 11.763 9.46997 11.47L10.9399 10L9.46997 8.53003C9.17697 8.23703 9.17697 7.76199 9.46997 7.46899C9.76297 7.17599 10.238 7.17599 10.531 7.46899L12.001 8.93896L13.4709 7.46899C13.7639 7.17599 14.239 7.17599 14.532 7.46899C14.825 7.76199 14.825 8.23703 14.532 8.53003L13.062 10L14.53 11.47Z" fill="currentColor"/>
</svg>

<svg xmlns="http://www.w3.org/2000/svg" width="24" height="24" fill="none"><path fill="currentColor" d="M16 3H8C6 3 5 4 5 6v15l7-4 7 4V6c0-2-1-3-3-3Zm-1.47 8.47a.75.75 0 0 1-1.06 1.061L12 11.061l-1.47 1.47a.748.748 0 0 1-1.06 0 .75.75 0 0 1 0-1.061L10.94 10 9.47 8.53a.75.75 0 0 1 1.061-1.061l1.47 1.47 1.47-1.47a.75.75 0 0 1 1.061 1.061L13.062 10l1.468 1.47Z"/></svg>
